packages/tokens/icons/dollarBill/size24Px.svg

<svg viewBox="0 0 24 24" fill="none" xmlns="http://www.w3.org/2000/svg" width="1em" height="1em"><path d="M2.5 8C2.5 7.17157 3.17157 6.5 4 6.5L20 6.5C20.8284 6.5 21.5 7.17157 21.5 8V16C21.5 16.8284 20.8284 17.5 20 17.5H4C3.17157 17.5 2.5 16.8284 2.5 16L2.5 8Z" stroke="currentColor"/><path d="M14 10.875V10.75C14 10.0596 13.4404 9.5 12.75 9.5H11.25C10.5596 9.5 10 10.0596 10 10.75C10 11.4404 10.5596 12 11.25 12H12.75C13.4404 12 14 12.5596 14 13.25C14 13.9404 13.4404 14.5 12.75 14.5H11.25C10.5596 14.5 10 13.9404 10 13.25V13M12 8.5V9M12 15V15.5" stroke="currentColor" stroke-linecap="round"/><line x1="4.5" y1="8.5" x2="5.5" y2="8.5" stroke="currentColor" stroke-linecap="round"/><line x1="18.5" y1="15.5" x2="19.5" y2="15.5" stroke="currentColor" stroke-linecap="round"/></svg>

<svg xmlns="http://www.w3.org/2000/svg" fill="none" viewBox="0 0 24 24" width="1em" height="1em"><path stroke="currentColor" d="M2.5 8A1.5 1.5 0 0 1 4 6.5h16A1.5 1.5 0 0 1 21.5 8v8a1.5 1.5 0 0 1-1.5 1.5H4A1.5 1.5 0 0 1 2.5 16V8Z"/><path stroke="currentColor" stroke-linecap="round" d="M14 10.875v-.125c0-.69-.56-1.25-1.25-1.25h-1.5a1.25 1.25 0 1 0 0 2.5h1.5a1.25 1.25 0 1 1 0 2.5h-1.5c-.69 0-1.25-.56-1.25-1.25V13m2-4.5V9m0 6v.5m-7.5-7h1m13 7h1"/></svg>
